app/dist/common/images/noratis-ag.svg

<svg height="18" viewBox="0 0 18 18" width="18" xmlns="http://www.w3.org/2000/svg"><path d="m0 0h18v18h-18z" fill="#f0f3fa"/><path d="m6.8 3.6 4.2 3.32v-2.92h1v8.36l2-2.1v-6.26h1v6.66l-3.46 3.74-4.54-3.8v3.4h-1v-4.23l-2-1.67v5.9h-1v-7.2zm-2.51 3.44 2.54 2.11 4.18 3.4v-4.35l-4.18-3.28-2.55 2.12z" fill="#045c38"/></svg>

<!-- by TradingView --><svg width="18" height="18" viewBox="0 0 18 18" xmlns="http://www.w3.org/2000/svg"><path fill="#F0F3FA" d="M0 0h18v18H0z"/><path d="M6.8 3.6 11 6.92V4h1v8.36l2-2.1V4h1v6.66l-3.46 3.74L7 10.6V14H6V9.77L4 8.1V14H3V6.8l3.8-3.2ZM4.29 7.04l2.54 2.11 4.18 3.4V8.2L6.83 4.92 4.28 7.04Z" fill="#045C38"/></svg>
